X:7269
T:The Red Haired Lass
O:england
M:4/4
L:1/8
S:John Kelly, Clare (fiddle) (?)
R:Reel
D:Fiddle concert - Milltown Malbay 1983
N:As played
H:Nice way to play a stock tune
K:G
DGGF G2BG | ~G2BG AEE2 | DGGF GABc | dedc BGAF | DGGF GABG | cGBG AEE2 |\
DGGF GABc | dedB cABc || degd edg2 | Bdgd BGG2 | Bdgd edeg |\
{a}gedB cABc | degd edg2 | Bdgd BGG2 | cecA BdBA | GABd ed{e}dB ||


